!!! OTL: Berkowitz577
!!! Chapter: 1
!!! Section: V
!!! Page: 156
!!! Mode: 
!!! Encoder: CD
**kern
*staff1
=1-
*clefG2
*k[]
*C:
*M9/8
4.a/
4.g/
8f/L
8e-/
8d-/J
=2
4.a/
4.g/
8f/L
8cc/
8b/J
=3
4.f#/
4.g#/
8gn/L
8a/
8b/J
=4
4.dd-\
4.ee-\
4.b-\
=5
!!linebreak:original
4.a/
4.g/
8f/L
8g/
8a/J
=6
4.e/
4.b\
8a/L
8g/
8f/J
=7
4.g-/
4.dd-\
8cc\L
8b\
8cc\J
=8
4.g/
8a/L
8g#/
8a/J
4.e/
=9
4.A/
4.d/
8c/L
8d/
8e/J
=10
!!linebreak:original
4.f/
4.c/
8g/L
8g-/
8f/J
=11
4.b\
4.a/
4.e/
=12
4.f#/
8fn/L
8B-/
8e-/J
4.d/
==
*-
